X:193
T:Up and About in the Morning
R:jig
M:6/8
L:1/8
K:D
A3 DED | ABG A2 d | cAG EFG | FAD EFG |
A3 DED | ABG A2 d | cAG EFG | FAD D3 :|
d2 e fef | ege dcA | A3 EFG | FAD EFA |
d2 e fef | ege dcA | A3 EFG | FAD D3:|
d3 dcA | ded dcA | ABA AGE | ABA ABc |
d2 e f3 | ege dcA | A3 EFG | FAD D3:|
